Adwaita++/emotes/16/face-devilish.svg

<svg height="16" width="16" xmlns="http://www.w3.org/2000/svg">
  <path d="m1.1442279.02208708c-.0644814.2796937-.0981781.56288782-.1007496.84672082.002873.9262826.3478261 3.3271921.6956521 3.3271921l2.0869565-1.3913043c-1.0233279-.7575699-2.4355644-1.7204123-2.681859-2.78260862z" fill="#a51d2d"/>
  <path d="m6.9565216 9.2173913s1.7391305 5.2826087 4.8695654 5.2826087c3.130434 0 2.673913-2.5 2.673913-2.5" fill="none" stroke="#a51d2d"/>
  <path d="m12.899859.02208708c.06448.2796937.09818.56288782.10075.84672082-.002873.9262826-.347827 3.3271921-.695653 3.3271921l-2.086956-1.3913043c1.023328-.7575699 2.435564-1.7204123 2.681859-2.78260862z" fill="#a51d2d"/>
  <path d="m7.0000001.9999994c-3.878 0-7.00000005 3.1220002-7.00000005 7.0000002 0 3.8780004 3.12200005 7.0000004 7.00000005 7.0000004 3.8780009 0 6.9999999-3.122 6.9999999-7.0000004 0-3.878-3.121999-7.0000002-6.9999999-7.0000002z" fill="#e01b24"/>
  <path d="m14.482065 10.500441a.33600777.31252702 0 0 0 -.272979.15584l-.581831.937489-.582267.937486a.33600777.31252702 0 0 0 .291353.468744h1.163659 1.163661a.33600777.31252702 0 0 0 .291353-.468744l-.582267-.937486-.581831-.937489a.33600777.31252702 0 0 0 -.308851-.15584z" fill="#c01c28"/>
  <path d="m5.8398752 6.6866307c.4208971-.417826-.0740127-.6797407-.4949094-1.0975663-.4208969-.4178261-.6083962-.8333415-1.0292933-.4155153-.4208967.4178259-.4208967 1.0952556 0 1.5130816.4208971.4178257 1.1033057.4178257 1.5242027 0z" fill="#241f31"/>
  <path d="m8.1601252 6.6866307c-.4208973-.417826.07401-.6797407.49491-1.0975663.4208968-.4178261.6083958-.8333415 1.0292928-.4155153.420896.4178259.420896 1.0952556 0 1.5130816-.420897.4178257-1.1033058.4178257-1.5242028 0z" fill="#241f31"/>
  <path d="m3.494301 10.05s1.2349719 1.45 3.5 1.45c2.265028 0 3.5-1.45 3.5-1.45" fill="none" stroke="#241f31" stroke-linecap="round" stroke-linejoin="round"/>
</svg>

<svg xmlns="http://www.w3.org/2000/svg" width="16" height="16" version="1">
 <path d="M 1.1442279,0.02208708 C 1.0797465,0.30178078 1.0460498,0.5849749 1.0434783,0.8688079 1.0463513,1.7950905 1.3913044,4.196 1.7391304,4.196 L 3.8260869,2.8046957 C 2.802759,2.0471258 1.3905225,1.0842834 1.1442279,0.02208708 Z" style="fill:#a51d2d"/>
 <path d="m 6.9565216,9.2173913 c 0,0 1.7391305,5.2826087 4.8695654,5.2826087 C 14.956521,14.5 14.5,12 14.5,12" style="fill:none;stroke:#a51d2d"/>
 <path d="m 12.899859,0.02208708 c 0.06448,0.2796937 0.09818,0.56288782 0.10075,0.84672082 C 12.997736,1.7950905 12.652782,4.196 12.304956,4.196 L 10.218,2.8046957 c 1.023328,-0.7575699 2.435564,-1.7204123 2.681859,-2.78260862 z" style="fill:#a51d2d"/>
 <path d="M 7.0000001,0.9999994 C 3.1220001,0.9999994 5e-8,4.1219996 5e-8,7.9999996 5e-8,11.878 3.1220001,15 7.0000001,15 10.878001,15 14,11.878 14,7.9999996 14,4.1219996 10.878001,0.9999994 7.0000001,0.9999994 Z" style="fill:#e01b24"/>
 <path d="m 14.482065,10.500441 a 0.33600777,0.31252702 0 0 0 -0.272979,0.15584 l -0.581831,0.937489 -0.582267,0.937486 A 0.33600777,0.31252702 0 0 0 13.336341,13 H 14.5 15.663661 a 0.33600777,0.31252702 0 0 0 0.291353,-0.468744 L 15.372747,11.59377 14.790916,10.656281 a 0.33600777,0.31252702 0 0 0 -0.308851,-0.15584 z" style="fill:#c01c28"/>
 <path d="M 5.8398752,6.6866307 C 6.2607723,6.2688047 5.7658625,6.00689 5.3449658,5.5890644 4.9240689,5.1712383 4.7365696,4.7557229 4.3156725,5.1735491 c -0.4208967,0.4178259 -0.4208967,1.0952556 0,1.5130816 0.4208971,0.4178257 1.1033057,0.4178257 1.5242027,0 z" style="fill:#241f31"/>
 <path d="M 8.1601252,6.6866307 C 7.7392279,6.2688047 8.2341352,6.00689 8.6550352,5.5890644 9.075932,5.1712383 9.263431,4.7557229 9.684328,5.1735491 c 0.420896,0.4178259 0.420896,1.0952556 0,1.5130816 -0.420897,0.4178257 -1.1033058,0.4178257 -1.5242028,0 z" style="fill:#241f31"/>
 <path d="m 3.494301,10.05 c 0,0 1.2349719,1.45 3.5,1.45 2.265028,0 3.5,-1.45 3.5,-1.45" style="fill:none;stroke:#241f31;stroke-linecap:round;stroke-linejoin:round"/>
</svg>
